X: 113
T: No_71_I_Will_Drive_the_Sickness_Out_of_You.krn
N: Derived from No_71_I_Will_Drive_the_Sickness_Out_of_You.krn
%%abc-version 2.0
%%abcx-abcm2ps-target-version 5.9.1 (29 Sep 2008)
%%abc-creator hum2abc beta
%%abcx-conversion-date 2019/03/15 08:35:45
%%humdrum-veritas 2578016719
%%humdrum-veritas-data 1931664127
%%linebreak <none>
%%barnumbers 0
L: 1/8
M: 2/4
K: C clef=bass
[K:clef=bass][M:2/4]z2z C/C/ | 
C2CA, | 
C2DC ||  
[M:3/4]_A,3/A,/G,2G, z ||  
[M:2/4]G,2D,D, | 
G,2G,G, | 
G,2G, z | 
G,2D,D, | 
G,2G,G, | 
G,2G,/ z/ C/C/ | 
C2CA, | 
C2DC ||  
[M:3/4]_A,3/A,/G,2G, z ||  
[M:2/4]G,2D,D, | 
G,2G,G, | 
G,2G, z |]  



